X:118
T:Jour d't
C:F. Paris
M:2/4
L:1/8
K:G
|:BdcA B2G2|BdcA g2G2|EFG2 GAB2|cBAc B2G2|
|BdcA B2G2|BdcA g2G2|EFG2 GABG|cAFA G4:|
|:efef e3f|efef d4|edc2 cBAB|cBAc B2G2|
|efef e3f|efef d4|edc2 cBAB|cAFA G4:|
